src/scalable/mimetypes/application-x-bittorrent.svg

<?xml version="1.0" encoding="UTF-8" standalone="no"?>
<svg
   xmlns:dc="http://purl.org/dc/elements/1.1/"
   xmlns:cc="http://creativecommons.org/ns#"
   xmlns:rdf="http://www.w3.org/1999/02/22-rdf-syntax-ns#"
   xmlns:svg="http://www.w3.org/2000/svg"
   xmlns="http://www.w3.org/2000/svg"
   xmlns:xlink="http://www.w3.org/1999/xlink"
   xmlns:sodipodi="http://sodipodi.sourceforge.net/DTD/sodipodi-0.dtd"
   xmlns:inkscape="http://www.inkscape.org/namespaces/inkscape"
   width="48px"
   height="48px"
   viewBox="0 0 48 48"
   version="1.1"
   id="svg18"
   sodipodi:docname="application-x-bittorrent.svg"
   inkscape:version="0.92.2 2405546, 2018-03-11">
  <metadata
     id="metadata22">
    <rdf:RDF>
      <cc:Work
         rdf:about="">
        <dc:format>image/svg+xml</dc:format>
        <dc:type
           rdf:resource="http://purl.org/dc/dcmitype/StillImage" />
      </cc:Work>
    </rdf:RDF>
  </metadata>
  <sodipodi:namedview
     pagecolor="#ffffff"
     bordercolor="#666666"
     borderopacity="1"
     objecttolerance="10"
     gridtolerance="10"
     guidetolerance="10"
     inkscape:pageopacity="0"
     inkscape:pageshadow="2"
     inkscape:window-width="689"
     inkscape:window-height="480"
     id="namedview20"
     showgrid="false"
     inkscape:zoom="4.9166667"
     inkscape:cx="24"
     inkscape:cy="24"
     inkscape:window-x="573"
     inkscape:window-y="205"
     inkscape:window-maximized="0"
     inkscape:current-layer="svg18" />
  <!-- Generator: Sketch 41.2 (35397) - http://www.bohemiancoding.com/sketch -->
  <title
     id="title2">application-x-bittorrent</title>
  <desc
     id="desc4">Created with Sketch.</desc>
  <defs
     id="defs11">
    <linearGradient
       x1="90.7002767%"
       y1="6.56534831%"
       x2="35.3271484%"
       y2="64.1438802%"
       id="linearGradient-1">
      <stop
         stop-color="#93DEF2"
         offset="0%"
         id="stop6" />
      <stop
         stop-color="#5ABADF"
         offset="100%"
         id="stop8" />
    </linearGradient>
    <linearGradient
       inkscape:collect="always"
       xlink:href="#linearGradient875"
       id="linearGradient877"
       x1="32.74707"
       y1="44"
       x2="32.74707"
       y2="17.242188"
       gradientUnits="userSpaceOnUse" />
    <linearGradient
       inkscape:collect="always"
       id="linearGradient875">
      <stop
         style="stop-color:#000000;stop-opacity:1;"
         offset="0"
         id="stop871" />
      <stop
         style="stop-color:#000000;stop-opacity:0;"
         offset="1"
         id="stop873" />
    </linearGradient>
  </defs>
  <g
     id="g829">
    <rect
       rx="2"
       ry="1.9047618"
       y="4"
       x="6"
       height="40"
       width="36"
       id="rect834"
       style="opacity:1;fill:#81c784;fill-opacity:1;stroke:none;stroke-width:0.92582005;stroke-linecap:round;stroke-linejoin:round;stroke-miterlimit:4;stroke-dasharray:none;stroke-opacity:0.05882353;paint-order:markers stroke fill" />
    <path
       inkscape:connector-curvature="0"
       id="rect866"
       d="M 42,17.242188 A 40,40 0 0 1 23.494141,44 H 40 c 1.108,0 2,-0.849059 2,-1.904297 z"
       style="opacity:0.15;fill:url(#linearGradient877);fill-opacity:1;stroke:none;stroke-width:0.92582005;stroke-linecap:round;stroke-linejoin:round;stroke-miterlimit:4;stroke-dasharray:none;stroke-opacity:0.05882353;paint-order:markers stroke fill" />
  </g>
  <g
     id="Page-1"
     stroke="none"
     stroke-width="1"
     fill="none"
     fill-rule="evenodd">
    <g
       id="application-x-bittorrent">
      <path
         d="M32.8763126,26.4955208 C32.8131712,26.8730528 32.7265274,27.2426236 32.6179364,27.6026779 C32.210155,27.7067408 31.7780708,27.8094236 31.3286779,27.9071177 C30.1254356,28.1686921 28.9458545,28.362455 27.8475894,28.4602762 C26.3647248,28.5923532 25.1198173,28.5399361 24.2060406,28.278857 C21.5200219,27.5114231 20.7141118,25.644014 21.6629262,23.8507546 C21.9082917,23.3870138 22.2390049,23.0316808 22.6382472,22.7655192 C22.9523498,22.5561174 23.292455,22.412593 23.6324138,22.3245815 C23.8309215,22.27319 23.9769168,22.2524031 24.0411874,22.2488682 C24.4547759,22.2261209 24.7716152,21.8724008 24.7488679,21.4588123 C24.7261205,21.0452238 24.3724004,20.7283845 23.958812,20.7511318 C23.3922839,20.7822908 22.6020532,20.9868728 21.8061968,21.5174438 C21.2054393,21.9179489 20.7028193,22.4579863 20.3370737,23.1492454 C18.9408967,25.7880202 20.1944643,28.6927159 23.7939589,29.721143 C24.9161935,30.0417814 26.330566,30.1013339 27.9806659,29.9543614 C29.1478578,29.850401 30.3872074,29.6468203 31.6473223,29.3728823 C31.7317545,29.3545275 31.8155941,29.3360048 31.8988017,29.3173355 C31.6812454,29.7145227 31.434603,30.0935096 31.1617401,30.4514307 C30.8143106,30.5392881 30.431222,30.6266804 30.0195797,30.7090089 C28.4013409,31.0326566 26.7670525,31.1977362 25.2575471,31.1203257 C23.9238414,31.0519305 22.7665693,30.7947589 21.8354103,30.3291794 C18.5645746,28.6937615 17.6688659,24.3645034 19.5856517,21.9685213 C19.8734985,21.6087128 20.1818714,21.2946292 20.5079157,21.0229256 C21.1816877,20.4614488 21.9000621,20.1022615 22.6156632,19.9034834 C23.0339925,19.7872808 23.347151,19.75 23.4999998,19.75 C23.9142134,19.75 24.2499998,19.4142136 24.2499998,19 C24.2499998,18.5857864 23.9142134,18.25 23.4999998,18.25 C22.4713585,18.25 21.0028474,18.6579198 19.547639,19.8705937 C19.144517,20.2065288 18.7653903,20.5926765 18.4143485,21.0314787 C15.9064767,24.1663183 17.0315796,29.6043149 21.1645899,31.6708202 C22.3013322,32.2391914 23.6556342,32.5401474 25.180725,32.6183572 C26.4593158,32.6839259 27.7991802,32.5924365 29.1427227,32.3869218 C27.6849623,33.4037033 25.9121174,34 24,34 C19.0294373,34 15,29.9705627 15,25 C15,20.0294373 19.0294373,16 24,16 C28.9513619,16 32.9688552,19.9983667 32.9998198,24.9424398 C32.4085041,25.0608159 31.7747969,25.1789732 31.1220385,25.28944 C30.3394037,25.4218859 29.5803671,25.5344838 28.8649866,25.620984 C26.5124276,25.9054438 24.7910982,25.8345655 24.6240377,25.5839748 C24.3802403,25.2182788 24.4201356,25.1105614 24.7458718,24.9151197 C24.9115349,24.8157219 25.0874487,24.7512201 25.1819018,24.7276069 C25.5837479,24.6271453 25.8280685,24.2199445 25.7276069,23.8180983 C25.6271454,23.4162521 25.2199445,23.1719316 24.8180983,23.2723931 C24.5925513,23.3287799 24.2884652,23.4402781 23.9741282,23.6288803 C22.9798644,24.2254386 22.5997597,25.2517212 23.3759623,26.4160252 C24.0393517,27.4111092 25.916638,27.4884093 29.0450476,27.1101375 C29.7857424,27.0205764 30.5677239,26.9045747 31.372326,26.7684113 C31.8892587,26.6809304 32.394094,26.5888202 32.8763126,26.4955208 Z"
         id="Combined-Shape"
         fill="#FFFFFF" />
    </g>
  </g>
</svg>

<svg xmlns="http://www.w3.org/2000/svg" xmlns:xlink="http://www.w3.org/1999/xlink" width="48" height="48"><defs><linearGradient xlink:href="#a" id="b" x1="32.747" y1="44" x2="32.747" y2="17.242" gradientUnits="userSpaceOnUse"/><linearGradient id="a"><stop offset="0"/><stop offset="1" stop-opacity="0"/></linearGradient></defs><g paint-order="markers stroke fill"><rect rx="2" ry="1.905" y="4" x="6" height="40" width="36" fill="#81c784"/><path d="M42 17.242A40 40 0 0 1 23.494 44H40c1.108 0 2-.85 2-1.904z" opacity=".15" fill="url(#b)"/></g><path d="M32.876 26.496c-.063.377-.15.747-.258 1.107-.408.104-.84.206-1.29.304a28.517 28.517 0 0 1-3.48.553c-1.483.132-2.728.08-3.642-.181-2.686-.768-3.492-2.635-2.543-4.428.245-.464.576-.82.975-1.085a3.268 3.268 0 0 1 1.403-.517.75.75 0 1 0-.082-1.498c-.567.031-1.357.236-2.153.766-.6.4-1.103.941-1.469 1.632-1.396 2.639-.143 5.544 3.457 6.572 1.122.32 2.537.38 4.187.233a29.975 29.975 0 0 0 3.918-.637 9.01 9.01 0 0 1-.737 1.134c-.348.088-.73.176-1.142.258-1.619.324-3.253.489-4.762.411-1.334-.068-2.491-.325-3.423-.79-3.27-1.636-4.166-5.965-2.25-8.361.288-.36.597-.674.923-.946a5.64 5.64 0 0 1 2.108-1.12c.418-.116.731-.153.884-.153a.75.75 0 1 0 0-1.5c-1.029 0-2.497.408-3.952 1.62a8.058 8.058 0 0 0-1.134 1.161c-2.508 3.135-1.382 8.573 2.75 10.64 1.137.568 2.492.87 4.017.947 1.278.066 2.618-.026 3.962-.231A9 9 0 1 1 33 24.943c-.591.118-1.225.236-1.878.346-.783.133-1.542.245-2.257.332-2.353.284-4.074.214-4.241-.037-.244-.366-.204-.473.122-.669.166-.1.341-.164.436-.187a.75.75 0 0 0-.364-1.456c-.225.057-.53.168-.844.357-.994.596-1.374 1.623-.598 2.787.663.995 2.54 1.072 5.669.694.74-.09 1.523-.205 2.327-.342.517-.087 1.022-.18 1.504-.272z" fill="#FFF" fill-rule="evenodd"/></svg>
